X:169
T:Jesus Shall Reign
%%stretchlast false
M:2/2
L:1/2
K:C clef=C1
"^I"[CEGc] [CGce]/ "^V7²"[DGBf]/ | "^I¹"[EGcg] "^IV"[Fca]/ "^V7²"[DGfb]/ | "^I"[CGec'] "^V²"[DGdb]/ "^II7"[D^Fca]/ | "^V"[G,GBg]2 | "^I"[CEcg] [CEcg]/ "^I¹"[EGcg]/ | "^IV"[Fca] "^I¹"[EGcg] | "^ii7"[DAcf]/ "^V7²"[DGBf]/ "^I"[CGce] | "^V"[G,GBd]2 | "^I"[CGce] [CGce]/ "^V7"[G,FBd]/ | "^I"[CEc]/ [CGce]/ "^I¹"[EGcg]/ [EGcc']/ | "^IV"[Fca]/ "^I¹"[EGcg]/ "^V7²"[DGBf]/ "^I"[CGce]/ | "^V"[G,GBd]2 | "^I¹"[EGcg]/ [Ecg]/ "^IV"[Fca]/ "^V7²"[DGfb]/ | "^I"[CGec']3/4 "^i"[DGdc']/4 "^I¹"[EGcc']/ "^ii¹"[FAdf]/ | "^I²"[Gce] "^V"[G,GBd]/ "^V7"[G,FBd]/ | "^I"[CEc]2 |]
